!!!OTL: WAS SCHIMMERT DORT AUF DEM BERGE SO SCHOEN
!!!ARE: Europa, Mitteleuropa, Deutschland
!!!SCT: B0277
!!!YEM: Copyright 1995, estate of Helmut Schaffrath.
**kern
*ICvox
*Ivox
*M4/4
*k[b-e-a-]
*E-:
{4g
=1
4.g
8f#
4g
8.a-
16g
=2
4f
8.g
16f
4e-
8r}
{16e-
16e-
=3
4f
4B-
4.g
16e-
16g
=4
4b-
8g
8g
4f
8r}
{8b-
=5
4b-
8.f
16g
4a-
8.f
16e-
=6
4d
8.e-
16f
4B-
8r}
{16f
16f
=7
4g
8f
8e-
4.f
8f
=8
4b-
8b-
8g
4f
8r}
{8g
=9
4g
8g
8g
4g
4g
=10
8g
8r
8g
8r
4g
8r}
{8g
=11
4g
8g
8g
4b-
8a-
8f
=12
4e-
4f
4g
8r}
{8g
=13
4g
8g
8g
4b-
8a-
8f
=14
4e-
4f
4g
8r}
{8g
=15
4g
8g
8g
4cc
8a-
8f
=16
4e-
4f
4g
8r}
{8g
=17
4g
8g
8g
4cc
8a-
8f
=18
2b-
2d
=19
2e-
4r}
==
!!!AGN: Stimmungs - Lied, Natur, Andacht
!!!ONB: ESAC (Essen Associative Code) Database: BOEHME
!!!AMT: simple quadruple
!!!AIN: vox
!!!EED: Helmut Schaffrath
!!!EEV: 1.0
*-
